X: 2
T: Blind Mary
T: Maire Dhall
C: O'Carolan
B: O'Neill's 655
Z: 2014 by John Chambers <jc:trillian.mit.edu>
N: handwritten MS by John Chambers (1970s)
M: 2/4
L: 1/16
K: D
A2 \
| "D"d4 dedc | "G"c2B2 "A7"A2FG | "D"A3B "Bm"A2FD | "Em"E4- "A7"E2A2 \
| "D"f4 fgfe | "G"d2B2 "A7"AFDE | "D"F3G "A7"{F}~E3D | "D"D6 ||
|| A2 \
| "D"f3g "Bm"f2B2 | "Em"efec "A7"BABc | "Bm"d3D DEFD | "Em"E4 "A7"A3G \
| "D"F3G Adde | "Bm"fgfe "G"dBDE | "D"F3G "A7"{F}~E3D | "D"D6 |]
